X: 9901
T: Desaunays
R: hornpipe
M: 4/4
K: Cmajor
ed|cEGc BDFA|GCEG (3FGF ED|CEGE FAdc|Bgag bagf|
eGce dGBd|cEGc (3ABA GE|CEGE FAdc|1 BGFD C2:|2 BGFD C3||
|:e|edcg gec'g|e'c' (3c'bc' gc'eg|fd (3d^cd BGge|[M:3/2]fdBd cGEG FDB,D|
[M:C||CEGE FAdc|Bg (3g^fg ag=fd|eGce dGFD|1 EGFD C3:|2 EGFD C2||

